X: 4
I: linebreak $
T: Hole in the Wall
T: longways for as many as will
P: 
C: John Playford, The Dancing Master, 1695
K: G major
M: 3/2
L: 1/4
P: A
"G"B3/c/ B/c/d"D"Ad | "Em"G3/A/ G/A/B"Bm"FB | "C"E3/F/ E/F/G"G"DB | "Dsus4"G3F"G"G2 | "G"B3/c/ B/c/d"D"Ad | \
"Em"G3/A/ G/A/B"Bm"FB | 
"C"E3/F/ E/F/G"G"DB | "C Dsus4"G3F"G"G2 ||
P: B
"Em"g3/f/ e/f/g"D"fe | "B"^d3/e/ d/e/fBf | "Em"g3/f/ e/f/g"D"fe | "Am    B"e3^d"Em"e2 | 
"C"E3/F/ E/F/G"D"F/G/A | "G"G3/A/ G/A/B"Am"A/B/c | "G"B3/c/ B/c/d"D"Dd | "G D"B3A/B/"G"G2 |] 

